!!!!SEGMENT: Ver3019-Piove_da_li_occhi.krn
!!!id: Ver3019
!!!AGN: Madrigal
!!!SCT: Slim (1972)
!!!voices:  4
!!!COM: Philippe Verdelot
!!!OTL: Piove da li occhi
**kern	**kern	**kern	**kern
*part4	*part3	*part2	*part1
*staff4	*staff3	*staff2	*staff1
*I"Bassus	*I"Tenor	*I"Altus	*I"Superius
*I'B	*I'T	*I'A	*I'S
*clefF4	*clefGv2	*clefGv2	*clefG2
*k[b-]	*k[b-]	*k[b-]	*k[b-]
*F:	*F:	*F:	*F:
*M2/1	*M2/1	*M2/1	*M2/1
*met(C)	*met(C)	*met(C)	*met(C)
=1	=1	=1	=1
0r	0r	1g	2r
.	.	.	2g
.	.	2g	2dd
.	.	2f	2dd
=2	=2	=2	=2
1r	1r	2g	2dd
.	.	2e	2cc
1G	2r	4d	2.dd
.	.	4c	.
.	2G	4B-y	.
.	.	4A	4cc
=3	=3	=3	=3
2G	2d	2G	2b-y
2F	2d	2A	2a
2G	2d	2B-y	1g
2E	2c	2G	.
=4	=4	=4	=4
2D	2.d	1A	1f
2D	.	.	.
.	4c	.	.
2G	2B-y	1r	1r
2F	2A	.	.
=5	=5	=5	=5
1E	1G	2r	1r
.	.	2g	.
1D	1A	2f	2r
.	.	2d	2dd
=6	=6	=6	=6
0r	0r	2e	2cc
.	.	2f	2a
.	.	1g	2b-y
.	.	.	2b-y
=7	=7	=7	=7
2r	2r	1f	2a
2D	2d	.	2a
2E	2c	1r	1r
2F	2A	.	.
=8	=8	=8	=8
2G	2B-y	0r	0r
2E	2c	.	.
4D	1d	.	.
4C	.	.	.
4D	.	.	.
4E	.	.	.
=9	=9	=9	=9
2F	2A	2r	2r
2D	2d	2f	2a
2D	2d	2f	2a
2D	2d	2f	2a
=10	=10	=10	=10
2C	2.e	2g	2.cc
2C	.	2g	.
.	4d	.	4b-y
2F	2c	2f	2a
2G	2B-y	2d	2g
=11	=11	=11	=11
2D	2A	2d	2f
2D	1d	2.a	2d
1A	.	.	1e
.	.	4g	.
.	2c#i	8aL	.
.	.	8g	.
.	.	8f	.
.	.	8eJ	.
=12	=12	=12	=12
1D	1d	1f	1d
2r	2r	2r	2r
2C	2G	2e	2g
=13	=13	=13	=13
2G	2B-y	2d	2g
2E	2G	2c	2g
2D	2A	2d	2f
2D	2A	2d	2f
=14	=14	=14	=14
2C	2c	2e	2g
2C	2c	2e	2g
[1BB-y	[1d	[1f	[1b-y
=15	=15	=15	=15
1BB-]	1d]	1f]	1b-]
1F	1c	1f	1a
=16	=16	=16	=16
1BB-y	1f	1b-y	1dd
1F	1f	1a	1cc
=17	=17	=17	=17
1G	1d	1g	1b-y
2D	2d	2f	2a
2D	2d	2f	2a
=18	=18	=18	=18
2r	2r	2r	2r
2D	2d	2f	2a
[1G	[1d	[1g	[1b-y
=19	=19	=19	=19
2G]	2d]	2g]	2b-]
2D	2d	2f	2a
2E-X	2B-y	2e-X	2g
2C	2c	2e-i	[2g
=20	=20	=20	=20
1D	1A	1d	4g]
.	.	.	8f#iL
.	.	.	8eJ
.	.	.	2f#i
4C	1c	1e	[1g
4D	.	.	.
4E	.	.	.
4F	.	.	.
=21	=21	=21	=21
4G	2.B-y	2.d	0g_
4A	.	.	.
4B-y	.	.	.
4c	4A	4c	.
4B-y	[1G	2d	.
4G	.	.	.
[2c	.	2e	.
=22	=22	=22	=22
4c]	1G]	1d	1g]
8BniL	.	.	.
8AJ	.	.	.
2Bni	.	.	.
2c	2r	2r	2r
2G	2d	2g	2b-y
=23	=23	=23	=23
2G	2d	2g	2b-y
2D	2d	2f	2a
2G	2d	2g	2b-y
2E	2G	[2g	2cc
=24	=24	=24	=24
1D	2A	2g]	2.dd
.	2.d	2f	.
.	.	.	4cc
[1G	.	2g	4b-y
.	4c	.	4a
.	4B-y	[2d	4g
.	4A	.	4f
=25	=25	=25	=25
2G]	2B-y	4d]	2g
.	.	4e	.
2F	2c	2f	2.a
2G	2B-y	2d	.
.	.	.	4g
2E	2G	2c	[2g
=26	=26	=26	=26
1D	1A	1d	2g]
.	.	.	2f#i
2r	2G	2B-y	2g
2G	2d	2g	2b-y
=27	=27	=27	=27
2G	2d	2g	2b-y
2D	2d	2f	2a
2G	2d	2g	2b-y
2E	2G	[2g	2cc
=28	=28	=28	=28
1D	2A	2g]	2.dd
.	2.d	2f	.
.	.	.	4cc
[1G	.	2g	4b-y
.	4c	.	4a
.	4B-y	[2d	4g
.	4A	.	4f
=29	=29	=29	=29
2G]	2B-y	4d]	2g
.	.	4e	.
2F	2c	2f	2.a
2G	2B-y	2d	.
.	.	.	4g
2E	2G	2c	[2g
=30	=30	=30	=30
1D	1A	1d	2g]
.	.	.	2f#i
[1Gl	[1Gl	[1B-yl	[1gl
=31	=31	=31	=31
00G]	00G]	00B-]	00g]
==	==	==	==
*-	*-	*-	*-
!!!system-decoration: [*]
!!!RDF**kern: i = editorial accidental
!!!RDF**kern: l = terminal long
!!!ENC: Benjamin Ory
!!!END: 2021/2/12
!!!EED: Benjamin Ory
!!!EEV: 2021/04/29
!!!YEC: Copyright 2021 Benjamin Ory, All Rights Reserved
!!!ONB: Translated from MusicXML on 2021/04/29
